dist/img/blog/cat.svg

<svg width="36" height="36" viewBox="0 0 36 36" fill="none" xmlns="http://www.w3.org/2000/svg">
<path d="M26.818 9.15332V8.53235C26.818 8.00536 26.3907 7.57757 25.8632 7.57757H25.4174C25.4108 7.35928 25.2323 7.18392 25.0124 7.18392H23.0218C22.8019 7.18392 22.6234 7.35927 22.6171 7.57757H21.7595L21.7597 3.42857H14.7476V7.57757H13.8895C13.8834 7.35928 13.7049 7.18392 13.4848 7.18392H11.4942C11.2743 7.18392 11.0958 7.35927 11.0894 7.57757H10.6434C10.1159 7.57757 9.68858 8.00513 9.68858 8.53235V9.15332C9.38374 9.17637 9.14307 9.42585 9.14307 9.73002V28.1093C9.14307 28.4134 9.38351 28.6629 9.68858 28.6862V29.3069C9.68858 29.8339 10.1159 30.2617 10.6434 30.2617H12.9303V30.7927C12.4261 30.934 12.0568 31.397 12.0568 31.9464C12.0568 32.6076 12.5931 33.1433 13.2543 33.1433C13.9157 33.1433 14.452 32.6075 14.452 31.9464C14.452 31.3972 14.0823 30.934 13.5785 30.7927V30.2617H22.9284V30.7927C22.4242 30.934 22.055 31.397 22.055 31.9464C22.055 32.6076 22.5912 33.1433 23.2527 33.1433C23.9139 33.1433 24.4501 32.6075 24.4501 31.9464C24.4501 31.3972 24.0804 30.934 23.5767 30.7927V30.2617H25.8636C26.391 30.2617 26.8183 29.8341 26.8183 29.3069V28.6862C27.1232 28.6629 27.3639 28.4134 27.3639 28.1093L27.3636 9.73002C27.3634 9.42585 27.123 9.17637 26.8181 9.15332H26.818ZM15.5458 4.23894H20.9614V7.57781L15.5458 7.57758V4.23894Z" fill="white"/>
</svg>

<svg width="36" height="36" viewBox="0 0 36 36" fill="none" xmlns="http://www.w3.org/2000/svg"><path d="M26.818 9.153v-.62a.955.955 0 00-.955-.955h-.446a.406.406 0 00-.405-.394h-1.99a.405.405 0 00-.405.394h-.858v-4.15h-7.011v4.15h-.858a.405.405 0 00-.405-.394h-1.99a.405.405 0 00-.406.394h-.446a.955.955 0 00-.954.954v.621a.584.584 0 00-.546.577v18.38c0 .303.24.553.546.576v.62c0 .528.427.956.954.956h2.287v.53a1.198 1.198 0 10.649 0v-.53h9.35v.53a1.198 1.198 0 10.648 0v-.53h2.287a.955.955 0 00.954-.955v-.62a.585.585 0 00.546-.578V9.73a.584.584 0 00-.546-.577zM15.546 4.24h5.415v3.339h-5.415v-3.34z" fill="#fff"/></svg>
